%2-CELL-TEST.2
#COMMENT BEGIN
MACHINE:OPTICS
DATE:22-06-15
TIME:14:04
Program notes:
Inverse feedrates F=seconds
#COMMENT END
#MCS OFF
#CS OFF
#RTCP OFF
#HSC OFF
#KIN ID[1]
G94
G70 G80 G90
G17 G40
G53
;CCOMP 0.06
D1
#RTCP ON
G70 G90 G17
G54
N100 G94 G01 X-6.4165 Y-1.5471 Z4.0946 B-2.79 C-81.02 F400.00
N102 G94 G01 X-6.3862 Y-1.7391 Z.0994 B-2.79 C-81.02 F400.00
N104 G93 G01 X-6.3854 Y-1.7439 Z-.0005 B-2.79 C-81.02 F.15
(JETON)
M61
M63
;START PATH 1
#HSC ON [FAST]
M65
N106 G93 G01 X-6.3354 Y-1.8305 Z-.0005 B-2.79 C-81.02 F3.00
M66
N108 G93 G01 X-6.2854 Y-1.917 Z-.0005 B-2.79 C-81.02 F3.00
M65
N110 G93 G01 X-6.2354 Y-2.0037 Z-.0005 B-2.79 C-81.02 F3.00
M66
N112 G93 G01 X-6.1854 Y-2.0903 Z-.0005 B-2.79 C-81.02 F3.00
M65
N114 G93 G01 X-6.1354 Y-2.1769 Z-.0005 B-2.79 C-81.02 F3.00
M66
N116 G93 G01 X-6.0854 Y-2.2635 Z-.0005 B-2.79 C-81.02 F3.00
M65
N118 G93 G01 X-6.0354 Y-2.3501 Z-.0005 B-2.79 C-81.02 F3.00
M66
N120 G93 G01 X-5.9854 Y-2.4367 Z-.0005 B-2.79 C-81.02 F3.00
M65
N122 G93 G01 X-5.9354 Y-2.5233 Z-.0005 B-2.79 C-81.02 F3.00
M66
N124 G93 G01 X-5.8854 Y-2.6099 Z-.0005 B-2.79 C-81.02 F3.00
M65
N126 G93 G01 X-5.8354 Y-2.6965 Z-.0005 B-2.79 C-81.02 F3.00
M66
N128 G93 G01 X-5.7854 Y-2.7831 Z-.0005 B-2.79 C-81.02 F3.00
M65
N130 G93 G01 X-5.7354 Y-2.8697 Z-.0005 B-2.79 C-81.02 F3.00
M66
N132 G93 G01 X-5.6854 Y-2.9563 Z-.0005 B-2.79 C-81.02 F3.00
M65
N134 G93 G01 X-5.6354 Y-3.043 Z-.0005 B-2.79 C-81.02 F3.00
M66
N136 G93 G01 X-5.5854 Y-3.1296 Z-.0005 B-2.79 C-81.02 F3.00
M65
N138 G93 G01 X-5.5354 Y-3.2161 Z-.0005 B-2.79 C-81.02 F3.00
M66
N140 G93 G01 X-5.4854 Y-3.3028 Z-.0005 B-2.79 C-81.02 F3.00
M65
N142 G93 G01 X-5.4353 Y-3.3894 Z-.0005 B-2.79 C-81.02 F3.00
M66
N144 G93 G01 X-5.3855 Y-3.4756 Z-.0005 B-2.79 C-80.18 F2.99
M65
N146 G93 G01 X-5.3792 Y-3.4856 Z-.0005 B-2.79 C-77.10 F.35
M66
N148 G93 G01 X-5.372 Y-3.4957 Z-.0005 B-2.79 C-73.86 F.37
M65
N150 G93 G01 X-5.3642 Y-3.5054 Z-.0005 B-2.79 C-70.64 F.37
M66
N152 G93 G01 X-5.3562 Y-3.5143 Z-.0005 B-2.79 C-67.56 F.36
M65
N154 G93 G01 X-5.3479 Y-3.5226 Z-.0005 B-2.79 C-64.48 F.36
M66
N156 G93 G01 X-5.3391 Y-3.5305 Z-.0005 B-2.79 C-61.38 F.35
M65
N158 G93 G01 X-5.3294 Y-3.5383 Z-.0005 B-2.79 C-58.13 F.37
M66
N160 G93 G01 X-5.3193 Y-3.5455 Z-.0005 B-2.79 C-54.90 F.37
M65
N162 G93 G01 X-5.3088 Y-3.5521 Z-.0005 B-2.79 C-51.67 F.37
M66
N164 G93 G01 X-5.2984 Y-3.5579 Z-.0005 B-2.79 C-48.60 F.36
M65
N166 G93 G01 X-5.2872 Y-3.5633 Z-.0005 B-2.79 C-45.37 F.37
M66
N168 G93 G01 X-5.2763 Y-3.5679 Z-.0005 B-2.79 C-42.28 F.35
M65
N170 G93 G01 X-5.2647 Y-3.5721 Z-.0005 B-2.79 C-39.03 F.37
M66
N172 G93 G01 X-5.2528 Y-3.5756 Z-.0005 B-2.79 C-35.80 F.37
M65
N174 G93 G01 X-5.2407 Y-3.5784 Z-.0005 B-2.79 C-32.58 F.37
M66
N176 G93 G01 X-5.229 Y-3.5805 Z-.0005 B-2.79 C-29.50 F.36
M65
N178 G93 G01 X-5.2167 Y-3.5819 Z-.0005 B-2.79 C-26.28 F.37
M66
N180 G93 G01 X-5.2025 Y-3.5829 Z-.0005 B-2.79 C-21.82 F.43
M65
N182 G93 G01 X-5.0919 Y-3.5829 Z-.0005 B-2.79 C-21.02 F3.32
M66
N184 G93 G01 X-4.9919 Y-3.5829 Z-.0005 B-2.79 C-21.02 F3.00
M65
N186 G93 G01 X-4.8919 Y-3.5829 Z-.0005 B-2.79 C-21.02 F3.00
M66
N188 G93 G01 X-4.7919 Y-3.5829 Z-.0005 B-2.79 C-21.02 F3.00
M65
N190 G93 G01 X-4.692 Y-3.5829 Z-.0005 B-2.79 C-21.02 F3.00
M66
N192 G93 G01 X-4.5919 Y-3.5829 Z-.0005 B-2.79 C-21.02 F3.00
M65
N194 G93 G01 X-4.4919 Y-3.5829 Z-.0005 B-2.79 C-21.02 F3.00
M66
N196 G93 G01 X-4.3919 Y-3.5829 Z-.0005 B-2.79 C-21.02 F3.00
M65
N198 G93 G01 X-4.2919 Y-3.5829 Z-.0005 B-2.79 C-21.02 F3.00
M66
N200 G93 G01 X-4.1919 Y-3.5829 Z-.0005 B-2.79 C-21.02 F3.00
M65
N202 G93 G01 X-4.092 Y-3.5829 Z-.0005 B-2.79 C-21.02 F3.00
M66
N204 G93 G01 X-3.9919 Y-3.5829 Z-.0005 B-2.79 C-21.02 F3.00
M65
N206 G93 G01 X-3.8919 Y-3.5829 Z-.0005 B-2.79 C-21.02 F3.00
M66
N208 G93 G01 X-3.7919 Y-3.5829 Z-.0005 B-2.79 C-21.02 F3.00
M65
N210 G93 G01 X-3.6919 Y-3.5829 Z-.0005 B-2.79 C-21.02 F3.00
M66
N212 G93 G01 X-3.5919 Y-3.5829 Z-.0005 B-2.79 C-21.02 F3.00
M65
N214 G93 G01 X-3.4919 Y-3.5829 Z-.0005 B-2.79 C-21.02 F3.00
M66
N216 G93 G01 X-3.3919 Y-3.5829 Z-.0005 B-2.79 C-21.02 F3.00
M65
N218 G93 G01 X-3.2919 Y-3.5829 Z-.0005 B-2.79 C-21.02 F3.00
M66
N220 G93 G01 X-3.1939 Y-3.5828 Z-.0005 B-2.79 C-19.38 F2.94
M65
N222 G93 G01 X-3.1815 Y-3.5821 Z-.0005 B-2.79 C-16.15 F.37
M66
N224 G93 G01 X-3.1692 Y-3.5807 Z-.0005 B-2.79 C-12.91 F.37
M65
N226 G93 G01 X-3.1575 Y-3.5787 Z-.0005 B-2.79 C-9.84 F.36
M66
N228 G93 G01 X-3.1453 Y-3.5759 Z-.0005 B-2.79 C-6.61 F.37
M65
N230 G93 G01 X-3.134 Y-3.5727 Z-.0005 B-2.79 C-3.53 F.35
M66
N232 G93 G01 X-3.1228 Y-3.5688 Z-.0005 B-2.79 C-.43 F.35
M65
N234 G93 G01 X-3.1113 Y-3.5641 Z-.0005 B-2.79 C2.82 F.37
M66
N236 G93 G01 X-3.1001 Y-3.5588 Z-.0005 B-2.79 C6.05 F.37
M65
N238 G93 G01 X-3.0892 Y-3.5528 Z-.0005 B-2.79 C9.27 F.37
M66
N240 G93 G01 X-3.0786 Y-3.5462 Z-.0005 B-2.79 C12.50 F.37
M65
N242 G93 G01 X-3.0689 Y-3.5394 Z-.0005 B-2.79 C15.59 F.36
M66
N244 G93 G01 X-3.0596 Y-3.5321 Z-.0005 B-2.79 C18.68 F.35
M65
N246 G93 G01 X-3.0507 Y-3.5243 Z-.0005 B-2.79 C21.78 F.35
M66
N248 G93 G01 X-3.0419 Y-3.5157 Z-.0005 B-2.79 C25.01 F.37
M65
N250 G93 G01 X-3.0338 Y-3.5069 Z-.0005 B-2.79 C28.09 F.36
M66
N252 G93 G01 X-3.0263 Y-3.4977 Z-.0005 B-2.79 C31.16 F.36
M65
N254 G93 G01 X-3.019 Y-3.4876 Z-.0005 B-2.79 C34.40 F.37
M66
N256 G93 G01 X-3.0118 Y-3.4766 Z-.0005 B-2.79 C38.39 F.40
M65
N258 G93 G01 X-2.9558 Y-3.3797 Z-.0005 B-2.79 C38.98 F3.36
M66
N260 G93 G01 X-2.9058 Y-3.2931 Z-.0005 B-2.79 C38.98 F3.00
M65
N262 G93 G01 X-2.8558 Y-3.2065 Z-.0005 B-2.79 C38.98 F3.00
M66
N264 G93 G01 X-2.8058 Y-3.1199 Z-.0005 B-2.79 C38.98 F3.00
M65
N266 G93 G01 X-2.7558 Y-3.0333 Z-.0005 B-2.79 C38.98 F3.00
M66
N268 G93 G01 X-2.7058 Y-2.9467 Z-.0005 B-2.79 C38.98 F3.00
M65
N270 G93 G01 X-2.6558 Y-2.8601 Z-.0005 B-2.79 C38.98 F3.00
M66
N272 G93 G01 X-2.6058 Y-2.7735 Z-.0005 B-2.79 C38.98 F3.00
M65
N274 G93 G01 X-2.5558 Y-2.6869 Z-.0005 B-2.79 C38.98 F3.00
M66
N276 G93 G01 X-2.5059 Y-2.6003 Z-.0005 B-2.79 C38.98 F3.00
M65
N278 G93 G01 X-2.4559 Y-2.5137 Z-.0005 B-2.79 C38.98 F3.00
M66
N280 G93 G01 X-2.4059 Y-2.4272 Z-.0005 B-2.79 C38.98 F3.00
M65
N282 G93 G01 X-2.3559 Y-2.3406 Z-.0005 B-2.79 C38.98 F3.00
M66
N284 G93 G01 X-2.3059 Y-2.2539 Z-.0005 B-2.79 C38.98 F3.00
M65
N286 G93 G01 X-2.2559 Y-2.1673 Z-.0005 B-2.79 C38.98 F3.00
M66
N288 G93 G01 X-2.2058 Y-2.0807 Z-.0005 B-2.79 C38.98 F3.00
M65
N290 G93 G01 X-2.1558 Y-1.9941 Z-.0005 B-2.79 C38.98 F3.00
M66
N292 G93 G01 X-2.1058 Y-1.9075 Z-.0005 B-2.79 C38.98 F3.00
M65
N294 G93 G01 X-2.0558 Y-1.8209 Z-.0005 B-2.79 C38.98 F3.00
M66
N296 G93 G01 X-2.0083 Y-1.7384 Z-.0005 B-2.79 C40.62 F2.86
M65
N298 G93 G01 X-2.0028 Y-1.7273 Z-.0005 B-2.79 C43.85 F.37
M66
N300 G93 G01 X-1.9978 Y-1.7159 Z-.0005 B-2.79 C47.08 F.37
M65
N302 G93 G01 X-1.9937 Y-1.7048 Z-.0005 B-2.79 C50.16 F.36
M66
N304 G93 G01 X-1.99 Y-1.6929 Z-.0005 B-2.79 C53.39 F.37
M65
N306 G93 G01 X-1.9871 Y-1.6814 Z-.0005 B-2.79 C56.47 F.35
M66
N308 G93 G01 X-1.9849 Y-1.6698 Z-.0005 B-2.79 C59.57 F.35
M65
N310 G93 G01 X-1.9832 Y-1.6576 Z-.0005 B-2.79 C62.81 F.37
M66
N312 G93 G01 X-1.9822 Y-1.6452 Z-.0005 B-2.79 C66.05 F.37
M65
N314 G93 G01 X-1.9819 Y-1.6327 Z-.0005 B-2.79 C69.27 F.37
M66
N316 G93 G01 X-1.9823 Y-1.6203 Z-.0005 B-2.79 C72.50 F.37
M65
N318 G93 G01 X-1.9834 Y-1.6084 Z-.0005 B-2.79 C75.59 F.36
M66
N320 G93 G01 X-1.9851 Y-1.5968 Z-.0005 B-2.79 C78.68 F.35
M65
N322 G93 G01 X-1.9874 Y-1.5852 Z-.0005 B-2.79 C81.78 F.35
M66
N324 G93 G01 X-1.9904 Y-1.5732 Z-.0005 B-2.79 C85.01 F.37
M65
N326 G93 G01 X-1.994 Y-1.5619 Z-.0005 B-2.79 C88.09 F.36
M66
N328 G93 G01 X-1.9982 Y-1.5507 Z-.0005 B-2.79 C91.16 F.36
M65
N330 G93 G01 X-2.0033 Y-1.5393 Z-.0005 B-2.79 C94.40 F.37
M66
N332 G93 G01 X-2.0092 Y-1.5276 Z-.0005 B-2.79 C98.39 F.40
M65
N334 G93 G01 X-2.0652 Y-1.4307 Z-.0005 B-2.79 C98.98 F3.36
M66
N336 G93 G01 X-2.1152 Y-1.3441 Z-.0005 B-2.79 C98.98 F3.00
M65
N338 G93 G01 X-2.1652 Y-1.2575 Z-.0005 B-2.79 C98.98 F3.00
M66
N340 G93 G01 X-2.2152 Y-1.1709 Z-.0005 B-2.79 C98.98 F3.00
M65
N342 G93 G01 X-2.2652 Y-1.0843 Z-.0005 B-2.79 C98.98 F3.00
M66
N344 G93 G01 X-2.3152 Y-.9977 Z-.0005 B-2.79 C98.98 F3.00
M65
N346 G93 G01 X-2.3652 Y-.9111 Z-.0005 B-2.79 C98.98 F3.00
M66
N348 G93 G01 X-2.4152 Y-.8245 Z-.0005 B-2.79 C98.98 F3.00
M65
N350 G93 G01 X-2.4652 Y-.7379 Z-.0005 B-2.79 C98.98 F3.00
M66
N352 G93 G01 X-2.5151 Y-.6513 Z-.0005 B-2.79 C98.98 F3.00
M65
N354 G93 G01 X-2.5651 Y-.5647 Z-.0005 B-2.79 C98.98 F3.00
M66
N356 G93 G01 X-2.6151 Y-.4782 Z-.0005 B-2.79 C98.98 F3.00
M65
N358 G93 G01 X-2.6651 Y-.3916 Z-.0005 B-2.79 C98.98 F3.00
M66
N360 G93 G01 X-2.7151 Y-.3049 Z-.0005 B-2.79 C98.98 F3.00
M65
N362 G93 G01 X-2.7651 Y-.2183 Z-.0005 B-2.79 C98.98 F3.00
M66
N364 G93 G01 X-2.8152 Y-.1317 Z-.0005 B-2.79 C98.98 F3.00
M65
N366 G93 G01 X-2.8651 Y-.0451 Z-.0005 B-2.79 C98.98 F3.00
M66
N368 G93 G01 X-2.9152 Y.0415 Z-.0005 B-2.79 C98.98 F3.00
M65
N370 G93 G01 X-2.9652 Y.1281 Z-.0005 B-2.79 C98.98 F3.00
M66
N372 G93 G01 X-3.0128 Y.2105 Z-.0005 B-2.79 C100.62 F2.86
M65
N374 G93 G01 X-3.0196 Y.2209 Z-.0005 B-2.79 C103.85 F.37
M66
N376 G93 G01 X-3.027 Y.2309 Z-.0005 B-2.79 C107.08 F.37
M65
N378 G93 G01 X-3.0346 Y.24 Z-.0005 B-2.79 C110.16 F.36
M66
N380 G93 G01 X-3.043 Y.2491 Z-.0005 B-2.79 C113.39 F.37
M65
N382 G93 G01 X-3.0515 Y.2574 Z-.0005 B-2.79 C116.47 F.35
M66
N384 G93 G01 X-3.0605 Y.2651 Z-.0005 B-2.79 C119.57 F.35
M65
N386 G93 G01 X-3.0703 Y.2727 Z-.0005 B-2.79 C122.82 F.37
M66
N388 G93 G01 X-3.0805 Y.2798 Z-.0005 B-2.79 C126.05 F.37
M65
N390 G93 G01 X-3.0911 Y.2862 Z-.0005 B-2.79 C129.27 F.37
M66
N392 G93 G01 X-3.1021 Y.2921 Z-.0005 B-2.79 C132.50 F.37
M65
N394 G93 G01 X-3.1129 Y.2971 Z-.0005 B-2.79 C135.59 F.36
M66
N396 G93 G01 X-3.1238 Y.3015 Z-.0005 B-2.79 C138.68 F.35
M65
N398 G93 G01 X-3.135 Y.3053 Z-.0005 B-2.79 C141.78 F.35
M66
N400 G93 G01 X-3.147 Y.3086 Z-.0005 B-2.79 C145.01 F.37
M65
N402 G93 G01 X-3.1586 Y.3112 Z-.0005 B-2.79 C148.09 F.36
M66
N404 G93 G01 X-3.1703 Y.3131 Z-.0005 B-2.79 C151.16 F.36
M65
N406 G93 G01 X-3.1827 Y.3144 Z-.0005 B-2.79 C154.40 F.37
M66
N408 G93 G01 X-3.1959 Y.3151 Z-.0005 B-2.79 C158.39 F.40
M65
N410 G93 G01 X-3.3078 Y.3151 Z-.0005 B-2.79 C158.98 F3.36
M66
N412 G93 G01 X-3.4077 Y.3151 Z-.0005 B-2.79 C158.98 F3.00
M65
N414 G93 G01 X-3.5077 Y.3151 Z-.0005 B-2.79 C158.98 F3.00
M66
N416 G93 G01 X-3.6077 Y.3151 Z-.0005 B-2.79 C158.98 F3.00
M65
N418 G93 G01 X-3.7077 Y.3151 Z-.0005 B-2.79 C158.98 F3.00
M66
N420 G93 G01 X-3.8077 Y.3151 Z-.0005 B-2.79 C158.98 F3.00
M65
N422 G93 G01 X-3.9077 Y.3151 Z-.0005 B-2.79 C158.98 F3.00
M66
N424 G93 G01 X-4.0077 Y.3151 Z-.0005 B-2.79 C158.98 F3.00
M65
N426 G93 G01 X-4.1077 Y.3151 Z-.0005 B-2.79 C158.98 F3.00
M66
N428 G93 G01 X-4.2077 Y.3151 Z-.0005 B-2.79 C158.98 F3.00
M65
N430 G93 G01 X-4.3076 Y.3151 Z-.0005 B-2.79 C158.98 F3.00
M66
N432 G93 G01 X-4.4076 Y.3151 Z-.0005 B-2.79 C158.98 F3.00
M65
N434 G93 G01 X-4.5076 Y.3151 Z-.0005 B-2.79 C158.98 F3.00
M66
N436 G93 G01 X-4.6077 Y.3151 Z-.0005 B-2.79 C158.98 F3.00
M65
N438 G93 G01 X-4.7077 Y.3151 Z-.0005 B-2.79 C158.98 F3.00
M66
N440 G93 G01 X-4.8077 Y.3151 Z-.0005 B-2.79 C158.98 F3.00
M65
N442 G93 G01 X-4.9077 Y.3151 Z-.0005 B-2.79 C158.98 F3.00
M66
N444 G93 G01 X-5.0077 Y.3151 Z-.0005 B-2.79 C158.98 F3.00
M65
N446 G93 G01 X-5.1077 Y.3151 Z-.0005 B-2.79 C158.98 F3.00
M66
N448 G93 G01 X-5.2029 Y.3151 Z-.0005 B-2.79 C160.62 F2.86
M65
N450 G93 G01 X-5.2152 Y.3143 Z-.0005 B-2.79 C163.85 F.37
M66
N452 G93 G01 X-5.2276 Y.3129 Z-.0005 B-2.79 C167.09 F.37
M65
N454 G93 G01 X-5.2393 Y.311 Z-.0005 B-2.79 C170.16 F.36
M66
N456 G93 G01 X-5.2514 Y.3082 Z-.0005 B-2.79 C173.39 F.37
M65
N458 G93 G01 X-5.2628 Y.3049 Z-.0005 B-2.79 C176.47 F.35
M66
N460 G93 G01 X-5.274 Y.3011 Z-.0005 B-2.79 C179.58 F.35
M65
N462 G93 G01 X-5.2855 Y.2964 Z-.0005 B-2.79 C182.82 F.37
M66
N464 G93 G01 X-5.2967 Y.2911 Z-.0005 B-2.79 C186.05 F.37
M65
N466 G93 G01 X-5.3076 Y.2851 Z-.0005 B-2.79 C189.27 F.37
M66
N468 G93 G01 X-5.3182 Y.2785 Z-.0005 B-2.79 C192.50 F.37
M65
N470 G93 G01 X-5.3279 Y.2717 Z-.0005 B-2.79 C195.59 F.36
M66
N472 G93 G01 X-5.3372 Y.2644 Z-.0005 B-2.79 C198.68 F.35
M65
N474 G93 G01 X-5.346 Y.2566 Z-.0005 B-2.79 C201.78 F.35
M66
N476 G93 G01 X-5.3549 Y.2479 Z-.0005 B-2.79 C205.01 F.37
M65
N478 G93 G01 X-5.3629 Y.2392 Z-.0005 B-2.79 C208.09 F.36
M66
N480 G93 G01 X-5.3705 Y.23 Z-.0005 B-2.79 C211.16 F.36
M65
N482 G93 G01 X-5.3778 Y.2199 Z-.0005 B-2.79 C214.40 F.37
M66
N484 G93 G01 X-5.385 Y.2088 Z-.0005 B-2.79 C218.39 F.40
M65
N486 G93 G01 X-5.441 Y.1119 Z-.0005 B-2.79 C218.98 F3.36
M66
N488 G93 G01 X-5.4909 Y.0254 Z-.0005 B-2.79 C218.98 F3.00
M65
N490 G93 G01 X-5.5409 Y-.0612 Z-.0005 B-2.79 C218.98 F3.00
M66
N492 G93 G01 X-5.5909 Y-.1478 Z-.0005 B-2.79 C218.98 F3.00
M65
N494 G93 G01 X-5.6409 Y-.2344 Z-.0005 B-2.79 C218.98 F3.00
M66
N496 G93 G01 X-5.6909 Y-.321 Z-.0005 B-2.79 C218.98 F3.00
M65
N498 G93 G01 X-5.7409 Y-.4076 Z-.0005 B-2.79 C218.98 F3.00
M66
N500 G93 G01 X-5.7909 Y-.4942 Z-.0005 B-2.79 C218.98 F3.00
M65
N502 G93 G01 X-5.8409 Y-.5808 Z-.0005 B-2.79 C218.98 F3.00
M66
N504 G93 G01 X-5.8909 Y-.6674 Z-.0005 B-2.79 C218.98 F3.00
M65
N506 G93 G01 X-5.9409 Y-.754 Z-.0005 B-2.79 C218.98 F3.00
M66
N508 G93 G01 X-5.9909 Y-.8406 Z-.0005 B-2.79 C218.98 F3.00
M65
N510 G93 G01 X-6.0409 Y-.9272 Z-.0005 B-2.79 C218.98 F3.00
M66
N512 G93 G01 X-6.0909 Y-1.0138 Z-.0005 B-2.79 C218.98 F3.00
M65
N514 G93 G01 X-6.1409 Y-1.1004 Z-.0005 B-2.79 C218.98 F3.00
M66
N516 G93 G01 X-6.1909 Y-1.187 Z-.0005 B-2.79 C218.98 F3.00
M65
N518 G93 G01 X-6.2409 Y-1.2736 Z-.0005 B-2.79 C218.98 F3.00
M66
N520 G93 G01 X-6.2909 Y-1.3603 Z-.0005 B-2.79 C218.98 F3.00
M65
N522 G93 G01 X-6.3409 Y-1.4469 Z-.0005 B-2.79 C218.98 F3.00
M66
N524 G93 G01 X-6.3884 Y-1.5293 Z-.0005 B-2.79 C220.62 F2.86
M65
N526 G93 G01 X-6.394 Y-1.5404 Z-.0005 B-2.79 C223.85 F.37
M66
N528 G93 G01 X-6.399 Y-1.5518 Z-.0005 B-2.79 C227.09 F.37
M65
N530 G93 G01 X-6.4031 Y-1.5629 Z-.0005 B-2.79 C230.16 F.36
M66
N532 G93 G01 X-6.4068 Y-1.5748 Z-.0005 B-2.79 C233.39 F.37
M65
N534 G93 G01 X-6.4097 Y-1.5863 Z-.0005 B-2.79 C236.47 F.35
M66
N536 G93 G01 X-6.4119 Y-1.5979 Z-.0005 B-2.79 C239.58 F.35
M65
N538 G93 G01 X-6.4136 Y-1.6102 Z-.0005 B-2.79 C242.82 F.37
M66
N540 G93 G01 X-6.4146 Y-1.6226 Z-.0005 B-2.79 C246.05 F.37
M65
N542 G93 G01 X-6.4149 Y-1.635 Z-.0005 B-2.79 C249.27 F.37
M66
N544 G93 G01 X-6.4144 Y-1.6475 Z-.0005 B-2.79 C252.50 F.37
M65
N546 G93 G01 X-6.4134 Y-1.6593 Z-.0005 B-2.79 C255.59 F.36
M66
N548 G93 G01 X-6.4117 Y-1.671 Z-.0005 B-2.79 C258.68 F.35
M65
N550 G93 G01 X-6.4094 Y-1.6825 Z-.0005 B-2.79 C261.78 F.35
M66
N552 G93 G01 X-6.4063 Y-1.6945 Z-.0005 B-2.79 C265.01 F.37
M65
N554 G93 G01 X-6.4027 Y-1.7059 Z-.0005 B-2.79 C268.09 F.36
M66
N556 G93 G01 X-6.3986 Y-1.717 Z-.0005 B-2.79 C271.16 F.36
M65
N558 G93 G01 X-6.3935 Y-1.7284 Z-.0005 B-2.79 C274.40 F.37
M66
N560 G93 G01 X-6.3882 Y-1.7389 Z-.0005 B-2.79 C277.49 F.35
M65
N562 G93 G01 X-6.3854 Y-1.7439 Z-.0005 B-2.79 C278.98 F.17
M66
#HSC OFF
;END PATH 1
(JETOFF)
M64
M62
N564 G94 G01 X-6.3862 Y-1.7391 Z.0994 B-2.79 C278.98 F400.00
N566 G94 G01 X-6.4165 Y-1.5471 Z4.0946 B-2.79 C278.98 F400.00
N568 G94 G01 X.5587 Y2.0506 Z4.0958 B-2.60 C120.00 F400.00
N570 G94 G01 X.468 Y2.2077 Z.0999 B-2.60 C120.00 F400.00
N572 G93 G01 X.4657 Y2.2116 Z0. B-2.60 C120.00 F.15
(JETON)
M61
M63
;START PATH 2
#HSC ON [FAST]
M65
N574 G93 G01 X.4592 Y2.2222 Z0. B-2.60 C123.25 F.37
M66
N576 G93 G01 X.4525 Y2.2319 Z0. B-2.60 C126.33 F.36
M65
N578 G93 G01 X.4448 Y2.2417 Z0. B-2.60 C129.56 F.37
M66
N580 G93 G01 X.4366 Y2.2511 Z0. B-2.60 C132.79 F.37
M65
N582 G93 G01 X.4279 Y2.26 Z0. B-2.60 C136.02 F.37
M66
N584 G93 G01 X.4192 Y2.268 Z0. B-2.60 C139.12 F.36
M65
N586 G93 G01 X.4101 Y2.2755 Z0. B-2.60 C142.21 F.35
M66
N588 G93 G01 X.4001 Y2.2828 Z0. B-2.60 C145.44 F.37
M65
N590 G93 G01 X.3896 Y2.2896 Z0. B-2.60 C148.68 F.37
M66
N592 G93 G01 X.3788 Y2.2957 Z0. B-2.60 C151.90 F.37
M65
N594 G93 G01 X.3676 Y2.3013 Z0. B-2.60 C155.14 F.37
M66
N596 G93 G01 X.3567 Y2.306 Z0. B-2.60 C158.23 F.36
M65
N598 G93 G01 X.3457 Y2.31 Z0. B-2.60 C161.33 F.35
M66
N600 G93 G01 X.3338 Y2.3137 Z0. B-2.60 C164.58 F.37
M65
N602 G93 G01 X.3217 Y2.3167 Z0. B-2.60 C167.81 F.37
M66
N604 G93 G01 X.3095 Y2.3189 Z0. B-2.60 C171.04 F.37
M65
N606 G93 G01 X.2977 Y2.3205 Z0. B-2.60 C174.12 F.36
M66
N608 G93 G01 X.2859 Y2.3214 Z0. B-2.60 C177.21 F.36
M65
N610 G93 G01 X.2732 Y2.3216 Z0. B-2.60 C180.00 F.38
M66
N612 G93 G01 X.1732 Y2.3216 Z0. B-2.60 C180.00 F3.00
M65
N614 G93 G01 X.0732 Y2.3216 Z0. B-2.60 C180.00 F3.00
M66
N616 G93 G01 X-.0269 Y2.3216 Z0. B-2.60 C180.00 F3.00
M65
N618 G93 G01 X-.1269 Y2.3216 Z0. B-2.60 C180.00 F3.00
M66
N620 G93 G01 X-.2269 Y2.3216 Z0. B-2.60 C180.00 F3.00
M65
N622 G93 G01 X-.3268 Y2.3216 Z0. B-2.60 C180.00 F3.00
M66
N624 G93 G01 X-.4268 Y2.3216 Z0. B-2.60 C180.00 F3.00
M65
N626 G93 G01 X-.5268 Y2.3216 Z0. B-2.60 C180.00 F3.00
M66
N628 G93 G01 X-.6268 Y2.3216 Z0. B-2.60 C180.00 F3.00
M65
N630 G93 G01 X-.7268 Y2.3216 Z0. B-2.60 C180.00 F3.00
M66
N632 G93 G01 X-.8268 Y2.3216 Z0. B-2.60 C180.00 F3.00
M65
N634 G93 G01 X-.9267 Y2.3216 Z0. B-2.60 C180.00 F3.00
M66
N636 G93 G01 X-1.0268 Y2.3216 Z0. B-2.60 C180.00 F3.00
M65
N638 G93 G01 X-1.1268 Y2.3216 Z0. B-2.60 C180.00 F3.00
M66
N640 G93 G01 X-1.2268 Y2.3216 Z0. B-2.60 C180.00 F3.00
M65
N642 G93 G01 X-1.3267 Y2.3216 Z0. B-2.60 C180.00 F3.00
M66
N644 G93 G01 X-1.4267 Y2.3216 Z0. B-2.60 C180.00 F3.00
M65
N646 G93 G01 X-1.5267 Y2.3216 Z0. B-2.60 C180.00 F3.00
M66
N648 G93 G01 X-1.6266 Y2.3216 Z0. B-2.60 C180.00 F3.00
M65
N650 G93 G01 X-1.726 Y2.3216 Z0. B-2.60 C181.23 F2.98
M66
N652 G93 G01 X-1.7383 Y2.321 Z0. B-2.60 C184.47 F.37
M65
N654 G93 G01 X-1.7501 Y2.3197 Z0. B-2.60 C187.56 F.36
M66
N656 G93 G01 X-1.7619 Y2.3178 Z0. B-2.60 C190.64 F.36
M65
N658 G93 G01 X-1.774 Y2.3152 Z0. B-2.60 C193.86 F.37
M66
N660 G93 G01 X-1.7855 Y2.3121 Z0. B-2.60 C196.95 F.36
M65
N662 G93 G01 X-1.7967 Y2.3083 Z0. B-2.60 C200.05 F.35
M66
N664 G93 G01 X-1.8076 Y2.304 Z0. B-2.60 C203.14 F.35
M65
N666 G93 G01 X-1.8184 Y2.299 Z0. B-2.60 C206.22 F.36
M66
N668 G93 G01 X-1.8289 Y2.2935 Z0. B-2.60 C209.29 F.36
M65
N670 G93 G01 X-1.8391 Y2.2874 Z0. B-2.60 C212.37 F.36
M66
N672 G93 G01 X-1.8494 Y2.2805 Z0. B-2.60 C215.61 F.37
M65
N674 G93 G01 X-1.8589 Y2.2733 Z0. B-2.60 C218.70 F.36
M66
N676 G93 G01 X-1.8678 Y2.2657 Z0. B-2.60 C221.79 F.35
M65
N678 G93 G01 X-1.8768 Y2.2572 Z0. B-2.60 C225.03 F.37
M66
N680 G93 G01 X-1.885 Y2.2486 Z0. B-2.60 C228.10 F.36
M65
N682 G93 G01 X-1.8927 Y2.2395 Z0. B-2.60 C231.18 F.36
M66
N684 G93 G01 X-1.9002 Y2.2296 Z0. B-2.60 C234.41 F.37
M65
N686 G93 G01 X-1.9068 Y2.2198 Z0. B-2.60 C237.49 F.35
M66
N688 G93 G01 X-1.9134 Y2.2088 Z0. B-2.60 C240.00 F.38
M65
N690 G93 G01 X-1.9634 Y2.1222 Z0. B-2.60 C240.00 F3.00
M66
N692 G93 G01 X-2.0134 Y2.0356 Z0. B-2.60 C240.00 F3.00
M65
N694 G93 G01 X-2.0634 Y1.949 Z0. B-2.60 C240.00 F3.00
M66
N696 G93 G01 X-2.1134 Y1.8624 Z0. B-2.60 C240.00 F3.00
M65
N698 G93 G01 X-2.1634 Y1.7758 Z0. B-2.60 C240.00 F3.00
M66
N700 G93 G01 X-2.2134 Y1.6892 Z0. B-2.60 C240.00 F3.00
M65
N702 G93 G01 X-2.2634 Y1.6027 Z0. B-2.60 C240.00 F3.00
M66
N704 G93 G01 X-2.3134 Y1.516 Z0. B-2.60 C240.00 F3.00
M65
N706 G93 G01 X-2.3634 Y1.4295 Z0. B-2.60 C240.00 F3.00
M66
N708 G93 G01 X-2.4134 Y1.3429 Z0. B-2.60 C240.00 F3.00
M65
N710 G93 G01 X-2.4633 Y1.2563 Z0. B-2.60 C240.00 F3.00
M66
N712 G93 G01 X-2.5134 Y1.1697 Z0. B-2.60 C240.00 F3.00
M65
N714 G93 G01 X-2.5634 Y1.0831 Z0. B-2.60 C240.00 F3.00
M66
N716 G93 G01 X-2.6134 Y.9965 Z0. B-2.60 C240.00 F3.00
M65
N718 G93 G01 X-2.6633 Y.9099 Z0. B-2.60 C240.00 F3.00
M66
N720 G93 G01 X-2.7133 Y.8233 Z0. B-2.60 C240.00 F3.00
M65
N722 G93 G01 X-2.7633 Y.7368 Z0. B-2.60 C240.00 F3.00
M66
N724 G93 G01 X-2.8133 Y.6501 Z0. B-2.60 C240.00 F3.00
M65
N726 G93 G01 X-2.8633 Y.5635 Z0. B-2.60 C240.00 F3.00
M66
N728 G93 G01 X-2.9129 Y.4776 Z0. B-2.60 C241.52 F2.98
M65
N730 G93 G01 X-2.9184 Y.4665 Z0. B-2.60 C244.75 F.37
M66
N732 G93 G01 X-2.9234 Y.4552 Z0. B-2.60 C247.98 F.37
M65
N734 G93 G01 X-2.9278 Y.4435 Z0. B-2.60 C251.21 F.37
M66
N736 G93 G01 X-2.9313 Y.4321 Z0. B-2.60 C254.29 F.36
M65
N738 G93 G01 X-2.9342 Y.4207 Z0. B-2.60 C257.37 F.36
M66
N740 G93 G01 X-2.9365 Y.4091 Z0. B-2.60 C260.47 F.35
M65
N742 G93 G01 X-2.9382 Y.3968 Z0. B-2.60 C263.70 F.37
M66
N744 G93 G01 X-2.9392 Y.3844 Z0. B-2.60 C266.94 F.37
M65
N746 G93 G01 X-2.9395 Y.3726 Z0. B-2.60 C270.02 F.36
M66
N748 G93 G01 X-2.9392 Y.3607 Z0. B-2.60 C273.09 F.36
M65
N750 G93 G01 X-2.9382 Y.3489 Z0. B-2.60 C276.17 F.36
M66
N752 G93 G01 X-2.9366 Y.3372 Z0. B-2.60 C279.27 F.35
M65
N754 G93 G01 X-2.9343 Y.325 Z0. B-2.60 C282.52 F.37
M66
N756 G93 G01 X-2.9313 Y.313 Z0. B-2.60 C285.76 F.37
M65
N758 G93 G01 X-2.9275 Y.3011 Z0. B-2.60 C288.99 F.37
M66
N760 G93 G01 X-2.9231 Y.2894 Z0. B-2.60 C292.22 F.37
M65
N762 G93 G01 X-2.9181 Y.278 Z0. B-2.60 C295.45 F.37
M66
N764 G93 G01 X-2.9121 Y.2663 Z0. B-2.60 C299.42 F.40
M65
N766 G93 G01 X-2.8561 Y.1693 Z0. B-2.60 C300.00 F3.36
M66
N768 G93 G01 X-2.8061 Y.0826 Z0. B-2.60 C300.00 F3.00
M65
N770 G93 G01 X-2.7561 Y-.004 Z0. B-2.60 C300.00 F3.00
M66
N772 G93 G01 X-2.7061 Y-.0905 Z0. B-2.60 C300.00 F3.00
M65
N774 G93 G01 X-2.6561 Y-.1772 Z0. B-2.60 C300.00 F3.00
M66
N776 G93 G01 X-2.6061 Y-.2638 Z0. B-2.60 C300.00 F3.00
M65
N778 G93 G01 X-2.5561 Y-.3504 Z0. B-2.60 C300.00 F3.00
M66
N780 G93 G01 X-2.5061 Y-.4369 Z0. B-2.60 C300.00 F3.00
M65
N782 G93 G01 X-2.4561 Y-.5235 Z0. B-2.60 C300.00 F3.00
M66
N784 G93 G01 X-2.4061 Y-.6101 Z0. B-2.60 C300.00 F3.00
M65
N786 G93 G01 X-2.3561 Y-.6968 Z0. B-2.60 C300.00 F3.00
M66
N788 G93 G01 X-2.3061 Y-.7834 Z0. B-2.60 C300.00 F3.00
M65
N790 G93 G01 X-2.2561 Y-.87 Z0. B-2.60 C300.00 F3.00
M66
N792 G93 G01 X-2.2061 Y-.9567 Z0. B-2.60 C300.00 F3.00
M65
N794 G93 G01 X-2.1561 Y-1.0433 Z0. B-2.60 C300.00 F3.00
M66
N796 G93 G01 X-2.1061 Y-1.1298 Z0. B-2.60 C300.00 F3.00
M65
N798 G93 G01 X-2.0561 Y-1.2164 Z0. B-2.60 C300.00 F3.00
M66
N800 G93 G01 X-2.0061 Y-1.303 Z0. B-2.60 C300.00 F3.00
M65
N802 G93 G01 X-1.9561 Y-1.3896 Z0. B-2.60 C300.00 F3.00
M66
N804 G93 G01 X-1.9085 Y-1.4719 Z0. B-2.60 C301.69 F2.85
M65
N806 G93 G01 X-1.9017 Y-1.4823 Z0. B-2.60 C304.93 F.37
M66
N808 G93 G01 X-1.8943 Y-1.4923 Z0. B-2.60 C308.16 F.37
M65
N810 G93 G01 X-1.8863 Y-1.5018 Z0. B-2.60 C311.38 F.37
M66
N812 G93 G01 X-1.8778 Y-1.5109 Z0. B-2.60 C314.62 F.37
M65
N814 G93 G01 X-1.8693 Y-1.5191 Z0. B-2.60 C317.71 F.36
M66
N816 G93 G01 X-1.8603 Y-1.5269 Z0. B-2.60 C320.81 F.35
M65
N818 G93 G01 X-1.8505 Y-1.5344 Z0. B-2.60 C324.05 F.37
M66
N820 G93 G01 X-1.8402 Y-1.5414 Z0. B-2.60 C327.28 F.37
M65
N822 G93 G01 X-1.8295 Y-1.5479 Z0. B-2.60 C330.51 F.37
M66
N824 G93 G01 X-1.8191 Y-1.5534 Z0. B-2.60 C333.58 F.36
M65
N826 G93 G01 X-1.8083 Y-1.5584 Z0. B-2.60 C336.67 F.36
M66
N828 G93 G01 X-1.7974 Y-1.5628 Z0. B-2.60 C339.76 F.35
M65
N830 G93 G01 X-1.7862 Y-1.5666 Z0. B-2.60 C342.85 F.35
M66
N832 G93 G01 X-1.7742 Y-1.5699 Z0. B-2.60 C346.08 F.37
M65
N834 G93 G01 X-1.7626 Y-1.5724 Z0. B-2.60 C349.17 F.36
M66
N836 G93 G01 X-1.7509 Y-1.5743 Z0. B-2.60 C352.25 F.36
M65
N838 G93 G01 X-1.7385 Y-1.5757 Z0. B-2.60 C355.48 F.37
M66
N840 G93 G01 X-1.7254 Y-1.5764 Z0. B-2.60 C359.43 F.39
M65
N842 G93 G01 X-1.6134 Y-1.5764 Z0. B-2.60 C360.00 F3.36
M66
N844 G93 G01 X-1.5134 Y-1.5764 Z0. B-2.60 C360.00 F3.00
M65
N846 G93 G01 X-1.4134 Y-1.5764 Z0. B-2.60 C360.00 F3.00
M66
N848 G93 G01 X-1.3134 Y-1.5764 Z0. B-2.60 C360.00 F3.00
M65
N850 G93 G01 X-1.2134 Y-1.5764 Z0. B-2.60 C360.00 F3.00
M66
N852 G93 G01 X-1.1134 Y-1.5764 Z0. B-2.60 C360.00 F3.00
M65
N854 G93 G01 X-1.0134 Y-1.5764 Z0. B-2.60 C360.00 F3.00
M66
N856 G93 G01 X-.9135 Y-1.5764 Z0. B-2.60 C360.00 F3.00
M65
N858 G93 G01 X-.8135 Y-1.5764 Z0. B-2.60 C360.00 F3.00
M66
N860 G93 G01 X-.7135 Y-1.5764 Z0. B-2.60 C360.00 F3.00
M65
N862 G93 G01 X-.6134 Y-1.5764 Z0. B-2.60 C360.00 F3.00
M66
N864 G93 G01 X-.5134 Y-1.5764 Z0. B-2.60 C360.00 F3.00
M65
N866 G93 G01 X-.4134 Y-1.5764 Z0. B-2.60 C360.00 F3.00
M66
N868 G93 G01 X-.3133 Y-1.5764 Z0. B-2.60 C360.00 F3.00
M65
N870 G93 G01 X-.2133 Y-1.5764 Z0. B-2.60 C360.00 F3.00
M66
N872 G93 G01 X-.1134 Y-1.5764 Z0. B-2.60 C360.00 F3.00
M65
N874 G93 G01 X-.0134 Y-1.5764 Z0. B-2.60 C360.00 F3.00
M66
N876 G93 G01 X.0866 Y-1.5764 Z0. B-2.60 C360.00 F3.00
M65
N878 G93 G01 X.1866 Y-1.5764 Z0. B-2.60 C360.00 F3.00
M66
N880 G93 G01 X.2817 Y-1.5763 Z0. B-2.60 C361.69 F2.85
M65
N882 G93 G01 X.294 Y-1.5756 Z0. B-2.60 C364.93 F.37
M66
N884 G93 G01 X.3064 Y-1.5741 Z0. B-2.60 C368.16 F.37
M65
N886 G93 G01 X.3187 Y-1.572 Z0. B-2.60 C371.38 F.37
M66
N888 G93 G01 X.3308 Y-1.5692 Z0. B-2.60 C374.62 F.37
M65
N890 G93 G01 X.3422 Y-1.5659 Z0. B-2.60 C377.70 F.36
M66
N892 G93 G01 X.3533 Y-1.562 Z0. B-2.60 C380.81 F.35
M65
N894 G93 G01 X.3648 Y-1.5573 Z0. B-2.60 C384.05 F.37
M66
N896 G93 G01 X.376 Y-1.5519 Z0. B-2.60 C387.28 F.37
M65
N898 G93 G01 X.3869 Y-1.5459 Z0. B-2.60 C390.51 F.37
M66
N900 G93 G01 X.397 Y-1.5396 Z0. B-2.60 C393.58 F.36
M65
N902 G93 G01 X.4067 Y-1.5328 Z0. B-2.60 C396.67 F.36
M66
N904 G93 G01 X.4159 Y-1.5255 Z0. B-2.60 C399.76 F.35
M65
N906 G93 G01 X.4248 Y-1.5177 Z0. B-2.60 C402.85 F.35
M66
N908 G93 G01 X.4336 Y-1.509 Z0. B-2.60 C406.08 F.37
M65
N910 G93 G01 X.4416 Y-1.5002 Z0. B-2.60 C409.16 F.36
M66
N912 G93 G01 X.4492 Y-1.491 Z0. B-2.60 C412.25 F.36
M65
N914 G93 G01 X.4565 Y-1.481 Z0. B-2.60 C415.48 F.37
M66
N916 G93 G01 X.4637 Y-1.47 Z0. B-2.60 C419.43 F.39
M65
N918 G93 G01 X.5197 Y-1.3729 Z0. B-2.60 C420.00 F3.36
M66
N920 G93 G01 X.5697 Y-1.2863 Z0. B-2.60 C420.00 F3.00
M65
N922 G93 G01 X.6197 Y-1.1997 Z0. B-2.60 C420.00 F3.00
M66
N924 G93 G01 X.6697 Y-1.1132 Z0. B-2.60 C420.00 F3.00
M65
N926 G93 G01 X.7197 Y-1.0265 Z0. B-2.60 C420.00 F3.00
M66
N928 G93 G01 X.7697 Y-.94 Z0. B-2.60 C420.00 F3.00
M65
N930 G93 G01 X.8196 Y-.8534 Z0. B-2.60 C420.00 F3.00
M66
N932 G93 G01 X.8696 Y-.7668 Z0. B-2.60 C420.00 F3.00
M65
N934 G93 G01 X.9196 Y-.6802 Z0. B-2.60 C420.00 F3.00
M66
N936 G93 G01 X.9696 Y-.5936 Z0. B-2.60 C420.00 F3.00
M65
N938 G93 G01 X1.0197 Y-.5069 Z0. B-2.60 C420.00 F3.00
M66
N940 G93 G01 X1.0697 Y-.4203 Z0. B-2.60 C420.00 F3.00
M65
N942 G93 G01 X1.1197 Y-.3337 Z0. B-2.60 C420.00 F3.00
M66
N944 G93 G01 X1.1697 Y-.2471 Z0. B-2.60 C420.00 F3.00
M65
N946 G93 G01 X1.2197 Y-.1605 Z0. B-2.60 C420.00 F3.00
M66
N948 G93 G01 X1.2697 Y-.0739 Z0. B-2.60 C420.00 F3.00
M65
N950 G93 G01 X1.3197 Y.0127 Z0. B-2.60 C420.00 F3.00
M66
N952 G93 G01 X1.3697 Y.0993 Z0. B-2.60 C420.00 F3.00
M65
N954 G93 G01 X1.4197 Y.1859 Z0. B-2.60 C420.00 F3.00
M66
N956 G93 G01 X1.4671 Y.2683 Z0. B-2.60 C421.69 F2.85
M65
N958 G93 G01 X1.4727 Y.2794 Z0. B-2.60 C424.93 F.37
M66
N960 G93 G01 X1.4776 Y.2908 Z0. B-2.60 C428.16 F.37
M65
N962 G93 G01 X1.4819 Y.3024 Z0. B-2.60 C431.38 F.37
M66
N964 G93 G01 X1.4856 Y.3144 Z0. B-2.60 C434.62 F.37
M65
N966 G93 G01 X1.4884 Y.3259 Z0. B-2.60 C437.71 F.36
M66
N968 G93 G01 X1.4906 Y.3375 Z0. B-2.60 C440.81 F.35
M65
N970 G93 G01 X1.4923 Y.3498 Z0. B-2.60 C444.05 F.37
M66
N972 G93 G01 X1.4932 Y.3621 Z0. B-2.60 C447.28 F.37
M65
N974 G93 G01 X1.4934 Y.3746 Z0. B-2.60 C450.51 F.37
M66
N976 G93 G01 X1.493 Y.3865 Z0. B-2.60 C453.58 F.36
M65
N978 G93 G01 X1.492 Y.3983 Z0. B-2.60 C456.67 F.36
M66
N980 G93 G01 X1.4903 Y.4099 Z0. B-2.60 C459.76 F.35
M65
N982 G93 G01 X1.488 Y.4215 Z0. B-2.60 C462.85 F.35
M66
N984 G93 G01 X1.4849 Y.4335 Z0. B-2.60 C466.08 F.37
M65
N986 G93 G01 X1.4813 Y.4448 Z0. B-2.60 C469.16 F.36
M66
N988 G93 G01 X1.477 Y.456 Z0. B-2.60 C472.25 F.36
M65
N990 G93 G01 X1.472 Y.4673 Z0. B-2.60 C475.48 F.37
M66
N992 G93 G01 X1.4661 Y.479 Z0. B-2.60 C479.43 F.39
M65
N994 G93 G01 X1.41 Y.5761 Z0. B-2.60 C480.00 F3.36
M66
N996 G93 G01 X1.36 Y.6627 Z0. B-2.60 C480.00 F3.00
M65
N998 G93 G01 X1.31 Y.7493 Z0. B-2.60 C480.00 F3.00
M66
N1000 G93 G01 X1.2601 Y.8358 Z0. B-2.60 C480.00 F3.00
M65
N1002 G93 G01 X1.21 Y.9225 Z0. B-2.60 C480.00 F3.00
M66
N1004 G93 G01 X1.1601 Y1.009 Z0. B-2.60 C480.00 F3.00
M65
N1006 G93 G01 X1.1101 Y1.0956 Z0. B-2.60 C480.00 F3.00
M66
N1008 G93 G01 X1.0601 Y1.1822 Z0. B-2.60 C480.00 F3.00
M65
N1010 G93 G01 X1.0101 Y1.2688 Z0. B-2.60 C480.00 F3.00
M66
N1012 G93 G01 X.9601 Y1.3554 Z0. B-2.60 C480.00 F3.00
M65
N1014 G93 G01 X.9101 Y1.4421 Z0. B-2.60 C480.00 F3.00
M66
N1016 G93 G01 X.86 Y1.5287 Z0. B-2.60 C480.00 F3.00
M65
N1018 G93 G01 X.81 Y1.6153 Z0. B-2.60 C480.00 F3.00
M66
N1020 G93 G01 X.76 Y1.7019 Z0. B-2.60 C480.00 F3.00
M65
N1022 G93 G01 X.71 Y1.7885 Z0. B-2.60 C480.00 F3.00
M66
N1024 G93 G01 X.66 Y1.8751 Z0. B-2.60 C480.00 F3.00
M65
N1026 G93 G01 X.61 Y1.9617 Z0. B-2.60 C480.00 F3.00
M66
N1028 G93 G01 X.56 Y2.0483 Z0. B-2.60 C480.00 F3.00
M65
N1030 G93 G01 X.51 Y2.1349 Z0. B-2.60 C480.00 F3.00
M66
N1032 G93 G01 X.4657 Y2.2116 Z0. B-2.60 C480.00 F2.66
#HSC OFF
;END PATH 2
(JETOFF)
M64
M62
N1034 G94 G01 X.468 Y2.2077 Z.0999 B-2.60 C480.00 F400.00
N1036 G94 G01 X.5587 Y2.0506 Z4.0958 B-2.60 C480.00 F400.00
M5
#HSC OFF
#RTCP OFF
#KIN ID[1]
#MCS ON
F400
 M30
